src/components/icon/microphone.svg

<svg xmlns="http://www.w3.org/2000/svg" width="16" height="16" viewBox="0 0 24 24">
<path d="M14.5,11.7692308 L14.5,4.23076923 C14.5,2.9827152 13.5874787,2 12.5,2 L11.5,2 C10.4125213,2 9.5,2.9827152 9.5,4.23076923 L9.5,11.7692308 C9.5,13.0172848 10.4125213,14 11.5,14 L12.5,14 C13.5874787,14 14.5,13.0172848 14.5,11.7692308 Z M16.5,11.7692308 C16.5,14.0900998 14.7265213,16 12.5,16 L11.5,16 C9.27347875,16 7.5,14.0900998 7.5,11.7692308 L7.5,4.23076923 C7.5,1.90990019 9.27347875,0 11.5,0 L12.5,0 C14.7265213,0 16.5,1.90990019 16.5,4.23076923 L16.5,11.7692308 Z" id="Stroke-455"/>
<path d="M11,22 L11,19.9457763 C7.07720201,19.5174513 4,16.6019591 4,13 C4,12.4477153 4.44771525,12 5,12 C5.55228475,12 6,12.4477153 6,13 C6,15.7241433 8.65510066,18 12,18 C15.3448993,18 18,15.7241433 18,13 C18,12.4477153 18.4477153,12 19,12 C19.5522847,12 20,12.4477153 20,13 C20,16.6019591 16.922798,19.5174513 13,19.9457763 L13,22 L17.2325581,22 C17.7848429,22 18.2325581,22.4477153 18.2325581,23 C18.2325581,23.5522847 17.7848429,24 17.2325581,24 L7,24 C6.44771525,24 6,23.5522847 6,23 C6,22.4477153 6.44771525,22 7,22 L11,22 Z"/>
</svg>

<svg xmlns="http://www.w3.org/2000/svg" width="16" height="16" viewBox="0 0 24 24"><path d="M14.5 11.77V4.23c0-1.247-.913-2.23-2-2.23h-1c-1.087 0-2 .983-2 2.23v7.54c0 1.247.913 2.23 2 2.23h1c1.087 0 2-.983 2-2.23zm2 0c0 2.32-1.773 4.23-4 4.23h-1c-2.227 0-4-1.91-4-4.23V4.23C7.5 1.91 9.273 0 11.5 0h1c2.227 0 4 1.91 4 4.23v7.54z"/><path d="M11 22v-2.054C7.077 19.517 4 16.602 4 13a1 1 0 0 1 2 0c0 2.724 2.655 5 6 5s6-2.276 6-5a1 1 0 0 1 2 0c0 3.602-3.077 6.517-7 6.946V22h4.233a1 1 0 1 1 0 2H7a1 1 0 0 1 0-2h4z"/></svg>
